Quickit/src/img/icons/sketch.svg

<svg width="43" height="39" viewBox="0 0 43 39" fill="none" xmlns="http://www.w3.org/2000/svg">
<path d="M2.53372 16.8937L19.8671 35.9365C20.7337 36.8898 22.2309 36.8898 23.0975 35.9365L40.4309 16.8915C41.109 16.1462 41.187 15.0303 40.6194 14.1983L32.9559 2.94467C32.7576 2.65435 32.4917 2.41665 32.181 2.25207C31.8703 2.08749 31.5243 2.00098 31.1727 2H11.833C11.4815 2.00098 11.1354 2.08749 10.8248 2.25207C10.5141 2.41665 10.2482 2.65435 10.0499 2.94467L2.37988 14.194C1.81005 15.0282 1.88805 16.1462 2.56838 16.8937H2.53372Z" stroke="white" stroke-width="3" stroke-linecap="round" stroke-linejoin="round"/>
</svg>

<svg xmlns="http://www.w3.org/2000/svg" width="43" height="39" fill="none" xmlns:v="https://vecta.io/nano"><path d="M2.534 16.894l17.333 19.043c.867.953 2.364.953 3.23 0l17.333-19.045a2.18 2.18 0 0 0 .188-2.693L32.956 2.945c-.198-.29-.464-.528-.775-.693s-.657-.251-1.008-.252h-19.34c-.351.001-.698.087-1.008.252s-.577.402-.775.693L2.38 14.194c-.57.834-.492 1.952.188 2.7h-.035z" stroke="#fff" stroke-width="3" stroke-linejoin="round"/></svg>
